svg/transport/ship_line.svg

<?xml version="1.0" encoding="UTF-8"?>
<svg width="24px" height="24px" viewBox="0 0 24 24" version="1.1" xmlns="http://www.w3.org/2000/svg" xmlns:xlink="http://www.w3.org/1999/xlink">
    <title>ship_line</title>
    <g id="页面-1" stroke="none" stroke-width="1" fill="none" fill-rule="evenodd">
        <g id="Transport" transform="translate(-384.000000, 0.000000)">
            <g id="ship_line" transform="translate(384.000000, 0.000000)">
                 <path d="M24,0 L24,24 L0,24 L0,0 L24,0 Z M12.5934901,23.257841 L12.5819402,23.2595131 L12.5108777,23.2950439 L12.4918791,23.2987469 L12.4918791,23.2987469 L12.4767152,23.2950439 L12.4056548,23.2595131 C12.3958229,23.2563662 12.3870493,23.2590235 12.3821421,23.2649074 L12.3780323,23.275831 L12.360941,23.7031097 L12.3658947,23.7234994 L12.3769048,23.7357139 L12.4804777,23.8096931 L12.4953491,23.8136134 L12.4953491,23.8136134 L12.5071152,23.8096931 L12.6106902,23.7357139 L12.6232938,23.7196733 L12.6232938,23.7196733 L12.6266527,23.7031097 L12.609561,23.275831 C12.6075724,23.2657013 12.6010112,23.2592993 12.5934901,23.257841 L12.5934901,23.257841 Z M12.8583906,23.1452862 L12.8445485,23.1473072 L12.6598443,23.2396597 L12.6498822,23.2499052 L12.6498822,23.2499052 L12.6471943,23.2611114 L12.6650943,23.6906389 L12.6699349,23.7034178 L12.6699349,23.7034178 L12.678386,23.7104931 L12.8793402,23.8032389 C12.8914285,23.8068999 12.9022333,23.8029875 12.9078286,23.7952264 L12.9118235,23.7811639 L12.8776777,23.1665331 C12.8752882,23.1545897 12.8674102,23.1470016 12.8583906,23.1452862 L12.8583906,23.1452862 Z M12.1430473,23.1473072 C12.1332178,23.1423925 12.1221763,23.1452606 12.1156365,23.1525954 L12.1099173,23.1665331 L12.0757714,23.7811639 C12.0751323,23.7926639 12.0828099,23.8018602 12.0926481,23.8045676 L12.108256,23.8032389 L12.3092106,23.7104931 L12.3186497,23.7024347 L12.3186497,23.7024347 L12.3225043,23.6906389 L12.340401,23.2611114 L12.337245,23.2485176 L12.337245,23.2485176 L12.3277531,23.2396597 L12.1430473,23.1473072 Z" id="MingCute" fill-rule="nonzero"></path>
                <path d="M9.99988,3 C9.99988,2.44772 10.4476,2 10.9999,2 L12.9999,2 C13.5522,2 13.9999,2.44772 13.9999,3 L13.9999,4.31954 L17.3287,4.87434 C18.2931,5.03507 18.9999,5.86945 18.9999,6.84713 L18.9999,10.2792 L21.0584,10.9654 C21.7521,11.1967 22.1001,11.9715 21.812,12.6437 L19.2905,18.5273 L20.4471,19.1056 C20.9411,19.3526 21.1413,19.9532 20.8943,20.4472 C20.6473,20.9412 20.0466,21.1414 19.5527,20.8944 L16.8943,19.5652 C16.3313,19.2837 15.6685,19.2837 15.1055,19.5652 L13.7887,20.2236 C12.6626,20.7867 11.3371,20.7867 10.211,20.2236 L8.89431,19.5652 C8.33126,19.2837 7.66851,19.2837 7.10546,19.5652 L4.4471,20.8944 C3.95312,21.1414 3.35245,20.9412 3.10546,20.4472 C2.85847,19.9532 3.05869,19.3526 3.55267,19.1056 L5.38495,18.1894 L2.28294,12.7609 C1.89158,12.076 2.22463,11.2043 2.97296,10.9549 L4.99988,10.2792 L4.99988,6.84713 C4.99988,5.86945 5.70671,5.03507 6.67109,4.87434 L9.99988,4.31954 L9.99988,3 Z M7.25147,17.4247 C8.10323,17.2625 8.99546,17.3798 9.78874,17.7764 L11.1055,18.4348 C11.6685,18.7163 12.3313,18.7163 12.8943,18.4348 L14.211,17.7764 C15.2401,17.2619 16.4356,17.2175 17.4933,17.6433 L19.6526,12.605 L11.9999,10.0541 L4.47332,12.5629 L7.25147,17.4247 Z M16.9999,9.61257 L16.9999,6.84713 L11.9999,6.01379 L6.99988,6.84713 L6.99988,9.61257 L11.3674,8.15673 C11.778,8.01988 12.2218,8.01988 12.6323,8.15673 L16.9999,9.61257 Z" id="形状" fill="#09244B"></path>
            </g>
        </g>
    </g>
</svg>

<svg xmlns="http://www.w3.org/2000/svg" width="24" height="24"><g fill="none" fill-rule="evenodd"><path d="M24 0v24H0V0h24ZM12.593 23.258l-.011.002-.071.035-.02.004-.014-.004-.071-.035c-.01-.004-.019-.001-.024.005l-.004.01-.017.428.005.02.01.013.104.074.015.004.012-.004.104-.074.012-.016.004-.017-.017-.427c-.002-.01-.009-.017-.017-.018Zm.265-.113-.013.002-.185.093-.01.01-.003.011.018.43.005.012.008.007.201.093c.012.004.023 0 .029-.008l.004-.014-.034-.614c-.003-.012-.01-.02-.02-.022Zm-.715.002a.023.023 0 0 0-.027.006l-.006.014-.034.614c0 .012.007.02.017.024l.015-.002.201-.093.01-.008.004-.011.017-.43-.003-.012-.01-.01-.184-.092Z"/><path fill="#09244B" d="M10 3a1 1 0 0 1 1-1h2a1 1 0 0 1 1 1v1.32l3.329.554a2 2 0 0 1 1.67 1.973v3.432l2.06.686a1.25 1.25 0 0 1 .753 1.679l-2.521 5.883 1.156.579a1 1 0 1 1-.894 1.788l-2.659-1.329a2 2 0 0 0-1.788 0l-1.317.659a4 4 0 0 1-3.578 0l-1.317-.659a2 2 0 0 0-1.789 0l-2.658 1.33a1 1 0 1 1-.894-1.79l1.832-.916-3.102-5.428a1.25 1.25 0 0 1 .69-1.806L5 10.279V6.847A2 2 0 0 1 6.67 4.874L10 4.32V3ZM7.25 17.425a4 4 0 0 1 2.538.351l1.316.659a2 2 0 0 0 1.79 0l1.316-.659a4 4 0 0 1 3.282-.133l2.16-5.038L12 10.055l-7.527 2.508 2.778 4.862ZM17 9.613V6.847l-5-.833-5 .833v2.766l4.367-1.456a2 2 0 0 1 1.265 0L17 9.613Z"/></g></svg>
